;FLAVOR:Marlin
;TIME:21528
;Filament used: 51.3643m
;Layer height: 0.42
;MINX:86.969
;MINY:54.004
;MINZ:0.2
;MAXX:182.073
;MAXY:148.031
;MAXZ:203.06
;Generated with Cura_SteamEngine 5.3.1
M140 S65
M105
M190 S65
M104 S215
M105
M109 S215
M82 ;absolute extrusion mode
; Ender 3 Custom Start G-code
G92 E0 ; Reset Extruder
G28 ; Home all axes
G1 Z2.0 F3000 ; Move Z Axis up little to prevent scratching of Heat Bed
G1 X0.1 Y20 Z0.3 F5000.0 ; Move to start position
G1 X0.1 Y200.0 Z0.3 F1500.0 E15 ; Draw the first line
G1 X0.4 Y200.0 Z0.3 F5000.0 ; Move to side a little
G1 X0.4 Y20 Z0.3 F1500.0 E30 ; Draw the second line
G92 E0 ; Reset Extruder
G1 Z2.0 F3000 ; Move Z Axis up little to prevent scratching of Heat Bed
G1 X5 Y20 Z0.3 F5000.0 ; Move over to prevent blob squish
G92 E0
G92 E0
;LAYER_COUNT:484
;LAYER:0
M107
M204 S500
G0 F9000 X94.448 Y62.332 Z0.2
M204 S400
;TYPE:SKIRT
G1 F2400 X95.601 Y61.297 E0.0773
G1 X103.962 Y55.223 E0.59289
G1 X105.209 Y54.516 E0.6644
G1 X107.352 Y54.004 E0.77433
G1 X118.352 Y54.004 E1.32312
G1 X120.514 Y54.52 E1.43401
G1 X121.986 Y55.379 E1.51904
G1 X130.057 Y61.259 E2.01723
G1 X131.257 Y62.333 E2.09757
G1 X132.445 Y64.279 E2.21132
G1 X135.813 Y74.644 E2.75505
G1 X135.995 Y76.931 E2.86951
G1 X135.561 Y78.88 E2.96913
G1 X132.931 Y86.969 E3.39348
G1 X140.653 Y86.969 E3.77874
G1 X142.222 Y87.293 E3.85866
G1 X143.092 Y87.571 E3.90423
G1 X144.537 Y88.404 E3.98744
G1 X145.318 Y88.967 E4.03548
G1 X146.504 Y90.296 E4.12434
G1 X147.165 Y91.432 E4.18991
G1 X147.663 Y92.538 E4.25043
G1 X148.031 Y94.348 E4.34258
G1 X148.031 Y96.838 E4.4668
G1 X149.582 Y97.969 E4.56257
G1 X150.419 Y97.405 E4.61293
G1 X152.422 Y96.628 E4.72011
G1 X153.723 Y96.49 E4.78538
G1 X164.424 Y96.463 E5.31926
G1 X166.592 Y96.977 E5.43042
G1 X168.064 Y97.838 E5.5155
G1 X176.135 Y103.718 E6.01369
G1 X177.335 Y104.792 E6.09403
G1 X178.523 Y106.738 E6.20778
G1 X181.891 Y117.103 E6.75151
G1 X182.073 Y119.39 E6.86597
G1 X181.639 Y121.339 E6.96559
G1 X178.524 Y130.92 E7.46821
G1 X177.335 Y132.866 E7.58199
G1 X176.087 Y133.98 E7.66545
G1 X167.501 Y140.246 E8.19575
G1 X165.534 Y140.978 E8.30045
G1 X164.112 Y141.193 E8.3722
G1 X153.456 Y141.193 E8.90383
G1 X151.373 Y140.712 E9.01049
G1 X149.784 Y139.817 E9.10148
G1 X148.031 Y138.605 E9.2078
G1 X148.031 Y140.649 E9.30978
G1 X147.734 Y142.124 E9.38484
G1 X147.443 Y143.075 E9.43446
G1 X146.6 Y144.522 E9.51801
G1 X145.984 Y145.368 E9.57022
G1 X144.663 Y146.531 E9.65802
G1 X143.291 Y147.305 E9.73662
G1 X142.473 Y147.662 E9.78114
G1 X140.652 Y148.031 E9.87384
G1 X94.28 Y148.031 E12.18735
G1 X92.658 Y147.683 E12.27011
G1 X91.936 Y147.449 E12.30798
G1 X90.586 Y146.677 E12.38556
G1 X89.679 Y146.03 E12.44115
G1 X88.494 Y144.7 E12.53002
G1 X87.835 Y143.568 E12.59537
G1 X87.337 Y142.462 E12.65588
G1 X86.969 Y140.652 E12.74803
G1 X86.969 Y94.347 E15.05819
G1 X87.293 Y92.778 E15.13812
G1 X87.571 Y91.908 E15.18369
G1 X88.404 Y90.463 E15.2669
G1 X88.967 Y89.682 E15.31494
G1 X90.296 Y88.496 E15.4038
G1 X91.432 Y87.835 E15.46937
G1 X92.539 Y87.337 E15.52993
G1 X92.874 Y87.268 E15.547
G1 X89.893 Y78.094 E16.02825
G1 X89.711 Y75.807 E16.14271
G1 X90.145 Y73.858 E16.24232
G1 X93.258 Y64.281 E16.74473
G1 X94.448 Y62.332 E16.85866
M204 S500
G0 F9000 X94.912 Y62.722
M204 S400
G1 F2400 X96.002 Y61.744 E16.93172
G1 X104.258 Y55.745 E17.44087
G1 X105.43 Y55.081 E17.50807
G1 X107.425 Y54.604 E17.61041
G1 X118.28 Y54.604 E18.15197
G1 X120.289 Y55.083 E18.255
G1 X121.683 Y55.897 E18.33554
G1 X129.704 Y61.744 E18.83075
G1 X130.792 Y62.721 E18.9037
G1 X131.895 Y64.529 E19.00936
G1 X135.221 Y74.763 E19.54623
G1 X135.39 Y76.888 E19.65258
G1 X134.99 Y78.694 E19.74486
G1 X132.104 Y87.569 E20.21046
G1 X140.59 Y87.569 E20.63383
G1 X142.101 Y87.881 E20.7108
G1 X142.847 Y88.123 E20.74993
G1 X144.237 Y88.924 E20.82997
G1 X144.912 Y89.414 E20.87158
G1 X146.016 Y90.651 E20.9543
G1 X146.646 Y91.734 E21.01681
G1 X147.089 Y92.725 E21.07096
G1 X147.431 Y94.408 E21.15664
G1 X147.431 Y97.143 E21.29309
G1 X149.567 Y98.702 E21.42503
G1 X150.697 Y97.94 E21.49302
G1 X152.562 Y97.217 E21.59281
G1 X153.786 Y97.087 E21.65422
G1 X164.353 Y97.063 E22.18141
G1 X166.367 Y97.541 E22.28468
G1 X167.761 Y98.356 E22.36525
G1 X175.782 Y104.203 E22.86045
G1 X176.87 Y105.18 E22.9334
G1 X177.973 Y106.988 E23.03907
G1 X181.299 Y117.222 E23.57593
G1 X181.468 Y119.347 E23.68228
G1 X181.068 Y121.153 E23.77457
G1 X177.974 Y130.669 E24.27379
G1 X176.87 Y132.476 E24.37943
G1 X175.687 Y133.532 E24.45855
G1 X167.211 Y139.714 E24.98194
G1 X165.384 Y140.394 E25.0792
G1 X164.068 Y140.593 E25.1456
G1 X153.526 Y140.593 E25.67154
G1 X151.591 Y140.146 E25.77062
G1 X150.125 Y139.323 E25.8545
G1 X147.431 Y137.461 E26.01788
G1 X147.431 Y140.591 E26.17404
G1 X147.16 Y141.948 E26.24308
G1 X146.889 Y142.832 E26.2892
G1 X146.081 Y144.22 E26.36933
G1 X145.536 Y144.964 E26.41534
G1 X144.318 Y146.036 E26.49629
G1 X142.996 Y146.782 E26.57202
G1 X142.29 Y147.087 E26.61039
G1 X140.592 Y147.431 E26.69683
G1 X94.344 Y147.431 E29.00415
G1 X92.843 Y147.112 E29.08071
G1 X92.18 Y146.897 E29.11548
G1 X90.884 Y146.156 E29.18996
G1 X90.083 Y145.581 E29.23915
G1 X88.984 Y144.348 E29.32156
G1 X88.354 Y143.266 E29.38402
G1 X87.911 Y142.275 E29.43818
G1 X87.569 Y140.592 E29.52386
G1 X87.569 Y94.41 E31.82789
G1 X87.881 Y92.899 E31.90486
G1 X88.123 Y92.153 E31.94399
G1 X88.924 Y90.763 E32.02403
G1 X89.414 Y90.088 E32.06564
G1 X90.651 Y88.984 E32.14836
G1 X91.734 Y88.354 E32.21087
G1 X92.725 Y87.911 E32.26502
G1 X93.653 Y87.722 E32.31227
G1 X90.485 Y77.975 E32.82359
G1 X90.316 Y75.85 E32.92994
G1 X90.716 Y74.044 E33.02223
G1 X93.809 Y64.53 E33.52134
G1 X94.912 Y62.722 E33.627
M204 S500
G0 F9000 X95.378 Y63.111
M204 S400
G1 F2400 X96.403 Y62.191 E33.69572
G1 X104.554 Y56.267 E34.19843
G1 X105.651 Y55.645 E34.26134
G1 X107.497 Y55.204 E34.35603
G1 X118.208 Y55.204 E34.8904
G1 X120.064 Y55.646 E34.98559
G1 X121.38 Y56.415 E35.06163
G1 X129.303 Y62.191 E35.5508
G1 X130.328 Y63.111 E35.61952
G1 X131.345 Y64.779 E35.71698
G1 X134.629 Y74.882 E36.24698
G1 X134.785 Y76.846 E36.34527
G1 X134.419 Y78.508 E36.43018
G1 X131.367 Y87.894 E36.92258
G1 X131.218 Y88.169 E36.93819
G1 X140.528 Y88.169 E37.40266
G1 X141.916 Y88.452 E37.47334
G1 X142.601 Y88.674 E37.50926
G1 X143.937 Y89.444 E37.58619
G1 X144.508 Y89.863 E37.62153
G1 X145.527 Y91.005 E37.69788
G1 X146.098 Y91.979 E37.75421
G1 X146.514 Y92.91 E37.80509
G1 X146.831 Y94.469 E37.88446
G1 X146.831 Y97.449 E38.03313
G1 X149.553 Y99.435 E38.20123
G1 X150.979 Y98.474 E38.28702
G1 X152.702 Y97.806 E38.37922
G1 X153.849 Y97.684 E38.43677
G1 X164.282 Y97.663 E38.95727
G1 X166.142 Y98.105 E39.05265
G1 X167.458 Y98.874 E39.1287
G1 X175.381 Y104.65 E39.61786
G1 X176.406 Y105.57 E39.68658
G1 X177.423 Y107.238 E39.78404
G1 X180.707 Y117.341 E40.31404
G1 X180.863 Y119.305 E40.41234
G1 X180.497 Y120.967 E40.49724
G1 X177.424 Y130.418 E40.99305
G1 X176.405 Y132.086 E41.09057
G1 X175.333 Y133.047 E41.1624
G1 X166.921 Y139.182 E41.68183
G1 X165.234 Y139.81 E41.77164
G1 X164.024 Y139.993 E41.83269
G1 X153.596 Y139.993 E42.35295
G1 X151.807 Y139.58 E42.44455
G1 X150.466 Y138.829 E42.52123
G1 X146.831 Y136.316 E42.7417
G1 X146.831 Y140.53 E42.95193
G1 X146.586 Y141.772 E43.01509
G1 X146.335 Y142.589 E43.05773
G1 X145.562 Y143.918 E43.13443
G1 X145.089 Y144.559 E43.17418
G1 X143.973 Y145.541 E43.24834
G1 X142.701 Y146.259 E43.32121
G1 X142.11 Y146.511 E43.35327
G1 X140.532 Y146.831 E43.4336
G1 X94.408 Y146.831 E45.73473
G1 X92.968 Y146.525 E45.80818
G1 X92.424 Y146.345 E45.83677
G1 X91.182 Y145.635 E45.90814
G1 X90.488 Y145.134 E45.95084
G1 X89.473 Y143.995 E46.02696
G1 X88.902 Y143.021 E46.08328
G1 X88.486 Y142.09 E46.13416
G1 X88.169 Y140.531 E46.21353
G1 X88.169 Y94.472 E48.51142
G1 X88.452 Y93.084 E48.58209
G1 X88.674 Y92.399 E48.61802
G1 X89.444 Y91.063 E48.69495
G1 X89.863 Y90.492 E48.73028
G1 X91.005 Y89.473 E48.80664
G1 X91.979 Y88.902 E48.86297
G1 X92.91 Y88.486 E48.91384
G1 X94.486 Y88.165 E48.99409
G1 X94.34 Y87.894 E49.00944
G1 X91.077 Y77.856 E49.53604
G1 X90.921 Y75.892 E49.63433
G1 X91.287 Y74.23 E49.71923
G1 X94.359 Y64.781 E50.21493
G1 X95.378 Y63.111 E50.31254
M204 S500
G0 F9000 X95.844 Y63.499
M204 S400
G1 F2400 X96.756 Y62.676 E50.37382
G1 X104.85 Y56.789 E50.87315
G1 X105.872 Y56.21 E50.93175
G1 X107.57 Y55.804 E51.01885
G1 X118.136 Y55.804 E51.54599
G1 X119.839 Y56.21 E51.63334
G1 X121.027 Y56.9 E51.70188
G1 X128.95 Y62.676 E52.19105
G1 X129.862 Y63.499 E52.25233
G1 X130.795 Y65.029 E52.34174
G1 X134.037 Y75.002 E52.86492
G1 X134.18 Y76.804 E52.95511
G1 X133.848 Y78.322 E53.03263
G1 X130.796 Y87.708 E53.52503
G1 X130.148 Y88.769 E53.58706
G1 X140.469 Y88.769 E54.10198
G1 X141.731 Y89.023 E54.1662
G1 X142.355 Y89.225 E54.19892
G1 X143.637 Y89.964 E54.27275
G1 X144.104 Y90.311 E54.30177
G1 X145.037 Y91.357 E54.3717
G1 X145.58 Y92.283 E54.42526
G1 X145.939 Y93.092 E54.46941
G1 X146.231 Y94.529 E54.54257
G1 X146.231 Y97.754 E54.70347
G1 X149.539 Y100.168 E54.90777
G1 X151.261 Y99.008 E55.01136
G1 X152.842 Y98.395 E55.09596
G1 X153.913 Y98.281 E55.14969
G1 X164.211 Y98.263 E55.66346
G1 X165.917 Y98.669 E55.75095
G1 X167.105 Y99.359 E55.81949
G1 X175.028 Y105.135 E56.30866
G1 X175.94 Y105.958 E56.36995
G1 X176.873 Y107.488 E56.45935
G1 X180.115 Y117.461 E56.98254
G1 X180.258 Y119.263 E57.07272
G1 X179.926 Y120.781 E57.15025
G1 X176.874 Y130.167 E57.64265
G1 X175.938 Y131.699 E57.73222
G1 X174.979 Y132.562 E57.79658
G1 X166.632 Y138.65 E58.31201
G1 X165.084 Y139.226 E58.39442
G1 X163.98 Y139.393 E58.45012
G1 X153.666 Y139.393 E58.96469
G1 X152.024 Y139.014 E59.04876
G1 X150.807 Y138.335 E59.11829
G1 X146.231 Y135.171 E59.39585
G1 X146.231 Y140.47 E59.66022
G1 X145.997 Y141.656 E59.72053
G1 X145.78 Y142.35 E59.7568
G1 X145.079 Y143.562 E59.82665
G1 X144.645 Y144.15 E59.86312
G1 X143.623 Y145.049 E59.93102
G1 X142.465 Y145.707 E59.99747
G1 X141.929 Y145.936 E60.02655
G1 X140.472 Y146.231 E60.10072
G1 X94.472 Y146.231 E62.39566
G1 X93.093 Y145.938 E62.466
G1 X92.671 Y145.795 E62.48823
G1 X91.48 Y145.114 E62.55668
G1 X90.892 Y144.686 E62.59296
G1 X89.963 Y143.643 E62.66264
G1 X89.42 Y142.717 E62.7162
G1 X89.061 Y141.908 E62.76036
G1 X88.769 Y140.471 E62.83351
G1 X88.769 Y94.531 E65.12547
G1 X89.023 Y93.269 E65.18969
G1 X89.225 Y92.645 E65.22241
G1 X89.964 Y91.363 E65.29624
G1 X90.311 Y90.896 E65.32527
G1 X91.357 Y89.963 E65.39519
G1 X92.283 Y89.42 E65.44875
G1 X93.092 Y89.061 E65.49291
G1 X94.529 Y88.769 E65.56606
G1 X95.558 Y88.769 E65.6174
G1 X94.911 Y87.709 E65.67936
G1 X91.669 Y77.736 E66.20254
G1 X91.526 Y75.934 E66.29273
G1 X91.858 Y74.416 E66.37025
G1 X94.91 Y65.03 E66.86265
G1 X95.844 Y63.499 E66.95213
M204 S500
G0 F9000 X96.312 Y63.885
M204 S400
G1 F2400 X97.109 Y63.161 E67.00585
G1 X105.146 Y57.311 E67.50179
G1 X106.093 Y56.774 E67.5561
G1 X107.642 Y56.404 E67.63555
G1 X118.064 Y56.404 E68.15551
G1 X119.617 Y56.774 E68.23516
G1 X120.674 Y57.385 E68.29607
G1 X128.597 Y63.161 E68.78524
G1 X129.394 Y63.885 E68.83895
G1 X130.246 Y65.281 E68.92055
G1 X133.445 Y75.122 E69.43681
G1 X133.575 Y76.764 E69.51898
G1 X133.277 Y78.136 E69.58903
G1 X130.246 Y87.457 E70.07802
G1 X129.394 Y88.853 E70.15962
G1 X128.822 Y89.369 E70.19805
G1 X140.411 Y89.369 E70.77623
G1 X141.613 Y89.611 E70.8374
G1 X142.107 Y89.775 E70.86337
G1 X143.279 Y90.446 E70.93074
G1 X143.699 Y90.758 E70.95685
G1 X144.549 Y91.711 E71.02055
G1 X145.062 Y92.586 E71.07116
G1 X145.364 Y93.274 E71.10864
G1 X145.631 Y94.589 E71.17559
G1 X145.631 Y98.059 E71.34871
G1 X149.525 Y100.901 E71.58922
G1 X151.543 Y99.542 E71.7106
G1 X152.982 Y98.984 E71.7876
G1 X153.977 Y98.878 E71.83752
G1 X164.14 Y98.863 E72.34456
G1 X165.695 Y99.233 E72.4243
G1 X166.752 Y99.844 E72.48521
G1 X174.675 Y105.62 E72.97438
G1 X175.472 Y106.344 E73.0281
G1 X176.324 Y107.74 E73.10969
G1 X179.523 Y117.581 E73.62595
G1 X179.653 Y119.223 E73.70813
G1 X179.355 Y120.595 E73.77817
G1 X176.324 Y129.916 E74.26717
G1 X175.471 Y131.313 E74.34883
G1 X174.625 Y132.077 E74.4057
G1 X166.342 Y138.118 E74.91717
G1 X164.934 Y138.642 E74.99212
G1 X163.936 Y138.793 E75.04248
G1 X153.736 Y138.793 E75.55136
G1 X152.242 Y138.448 E75.62786
G1 X151.148 Y137.841 E75.69027
G1 X145.631 Y134.026 E76.02492
G1 X145.631 Y140.41 E76.34342
G1 X145.408 Y141.54 E76.40088
G1 X145.226 Y142.111 E76.43078
G1 X144.56 Y143.262 E76.49712
G1 X144.201 Y143.742 E76.52703
G1 X143.276 Y144.556 E76.5885
G1 X142.169 Y145.185 E76.65202
G1 X141.751 Y145.36 E76.67463
G1 X140.412 Y145.631 E76.74279
G1 X94.536 Y145.631 E79.03155
G1 X93.218 Y145.351 E79.09877
G1 X92.92 Y145.246 E79.11453
G1 X91.778 Y144.593 E79.18017
G1 X91.299 Y144.241 E79.20982
G1 X90.451 Y143.289 E79.27343
G1 X89.938 Y142.414 E79.32403
G1 X89.636 Y141.726 E79.36152
G1 X89.369 Y140.411 E79.42846
G1 X89.369 Y94.589 E81.71453
G1 X89.611 Y93.387 E81.7757
G1 X89.775 Y92.893 E81.80167
G1 X90.446 Y91.721 E81.86905
G1 X90.758 Y91.301 E81.89515
G1 X91.711 Y90.451 E81.95886
G1 X92.586 Y89.938 E82.00946
G1 X93.274 Y89.636 E82.04695
G1 X94.589 Y89.369 E82.11389
G1 X96.887 Y89.369 E82.22854
G1 X96.313 Y88.854 E82.26701
G1 X95.46 Y87.457 E82.34868
G1 X92.261 Y77.616 E82.86493
G1 X92.131 Y75.974 E82.94711
G1 X92.429 Y74.602 E83.01715
G1 X95.46 Y65.281 E83.50615
G1 X96.312 Y63.885 E83.58774
M204 S500
G0 F9000 X96.779 Y64.272
M204 S400
G1 F2400 X97.513 Y63.605 E83.63722
G1 X105.442 Y57.833 E84.12652
G1 X106.314 Y57.338 E84.17654
G1 X107.714 Y57.004 E84.24835
G1 X117.992 Y57.004 E84.76112
G1 X119.394 Y57.338 E84.83302
G1 X120.321 Y57.87 E84.88635
G1 X128.193 Y63.605 E85.37225
G1 X128.927 Y64.272 E85.42173
G1 X129.696 Y65.532 E85.49538
G1 X132.853 Y75.243 E86.00482
G1 X132.97 Y76.721 E86.07879
G1 X132.706 Y77.95 E86.1415
G1 X129.696 Y87.206 E86.62709
G1 X128.926 Y88.467 E86.7008
G1 X128.143 Y89.174 E86.75344
G1 X127.055 Y89.969 E86.82066
G1 X140.35 Y89.969 E87.48395
G1 X141.424 Y90.181 E87.53857
G1 X141.865 Y90.327 E87.56175
G1 X142.921 Y90.928 E87.62236
G1 X143.294 Y91.205 E87.64554
G1 X144.059 Y92.063 E87.70289
G1 X144.544 Y92.89 E87.75072
G1 X144.789 Y93.455 E87.78145
G1 X145.031 Y94.649 E87.84223
G1 X145.031 Y98.365 E88.02762
G1 X148.977 Y101.244 E88.27132
G1 X149.455 Y101.672 E88.30333
G1 X151.825 Y100.076 E88.44588
G1 X153.122 Y99.573 E88.51528
G1 X154.041 Y99.475 E88.56139
G1 X164.069 Y99.463 E89.06169
G1 X165.472 Y99.797 E89.13364
G1 X166.399 Y100.329 E89.18696
G1 X174.271 Y106.064 E89.67287
G1 X175.005 Y106.731 E89.72235
G1 X175.774 Y107.991 E89.796
G1 X178.931 Y117.702 E90.30544
G1 X179.048 Y119.18 E90.37941
G1 X178.784 Y120.409 E90.44212
G1 X175.774 Y129.665 E90.92771
G1 X175.005 Y130.925 E91.00135
G1 X174.271 Y131.592 E91.05083
G1 X166.053 Y137.586 E91.5583
G1 X164.784 Y138.058 E91.62585
G1 X163.892 Y138.193 E91.67086
G1 X153.806 Y138.193 E92.17405
G1 X152.459 Y137.882 E92.24302
G1 X151.439 Y137.316 E92.30122
G1 X145.031 Y132.882 E92.68999
G1 X145.031 Y140.35 E93.06257
G1 X144.819 Y141.424 E93.11718
G1 X144.674 Y141.867 E93.14044
G1 X144.08 Y142.902 E93.19997
G1 X143.758 Y143.332 E93.22678
G1 X142.926 Y144.065 E93.2821
G1 X141.873 Y144.663 E93.34251
G1 X141.572 Y144.784 E93.3587
G1 X140.352 Y145.031 E93.4208
G1 X94.6 Y145.031 E95.70337
G1 X93.343 Y144.764 E95.76748
G1 X93.17 Y144.698 E95.77672
G1 X92.076 Y144.072 E95.83961
G1 X91.704 Y143.794 E95.86277
G1 X90.941 Y142.937 E95.92002
G1 X90.456 Y142.11 E95.96785
G1 X90.211 Y141.545 E95.99858
G1 X89.969 Y140.351 E96.05936
G1 X89.969 Y94.65 E98.33939
G1 X90.181 Y93.576 E98.394
G1 X90.327 Y93.135 E98.41718
G1 X90.928 Y92.079 E98.4778
G1 X91.205 Y91.706 E98.50098
G1 X92.063 Y90.941 E98.55833
G1 X92.89 Y90.456 E98.60616
G1 X93.455 Y90.211 E98.63688
G1 X94.649 Y89.969 E98.69766
G1 X98.646 Y89.969 E98.89707
G1 X97.613 Y89.215 E98.96088
G1 X96.78 Y88.467 E99.01673
G1 X96.01 Y87.206 E99.09045
G1 X92.853 Y77.495 E99.59989
G1 X92.736 Y76.017 E99.67386
G1 X93 Y74.788 E99.73657
G1 X96.01 Y65.532 E100.22216
G1 X96.779 Y64.272 E100.2958
M204 S500
G0 F9000 X97.246 Y64.659
M204 S400
G1 F2400 X97.917 Y64.049 E100.34104
G1 X105.738 Y58.355 E100.82369
G1 X106.535 Y57.902 E100.86943
G1 X107.786 Y57.604 E100.93359
G1 X117.92 Y57.604 E101.43917
G1 X119.171 Y57.902 E101.50333
